character-justice/static/images/footer/facebook.svg

<svg height="26" preserveAspectRatio="xMidYMid meet" viewBox="0 0 26 26" width="26" xmlns="http://www.w3.org/2000/svg" xmlns:xlink="http://www.w3.org/1999/xlink"><defs><path id="a" d="m0 23.98c0 1.11.9 2 2 2h11.84c0-.67 0-4.01 0-10.03h-3.38v-4.1h3.38c0-2.06 0-3.21 0-3.44 0-2.5 2.03-4.53 4.53-4.53h3.54v3.68c-1.52 0-2.36 0-2.53 0-.8 0-1.44.65-1.44 1.44v2.85h3.9l-.54 4.1h-3.36v10.03h6.04c1.11 0 2-.89 2-2 0-2.19 0-19.78 0-21.98 0-1.1-.89-2-2-2-1.47 0-8.79 0-21.98 0-1.33.6-2 1.26-2 2z"/><path id="b" d="m0 23.98c0 1.11.9 2 2 2h11.84c0-.67 0-4.01 0-10.03h-3.38v-4.1h3.38c0-2.06 0-3.21 0-3.44 0-2.5 2.03-4.53 4.53-4.53h3.54v3.68c-1.52 0-2.36 0-2.53 0-.8 0-1.44.65-1.44 1.44v2.85h3.9l-.54 4.1h-3.36v10.03h6.04c1.11 0 2-.89 2-2 0-2.19 0-19.78 0-21.98 0-1.1-.89-2-2-2-1.47 0-8.79 0-21.98 0-1.33.6-2 1.26-2 2z"/></defs><use fill="#4a4a4a" xlink:href="#a"/><g fill="none"><use xlink:href="#a"/><use xlink:href="#b"/><use xlink:href="#b"/></g></svg>

<?xml version="1.0" encoding="UTF-8" standalone="no"?>
<!DOCTYPE svg PUBLIC "-//W3C//DTD SVG 1.1//EN" "http://www.w3.org/Graphics/SVG/1.1/DTD/svg11.dtd">
<svg version="1.1" xmlns="http://www.w3.org/2000/svg" xmlns:xlink="http://www.w3.org/1999/xlink" preserveAspectRatio="xMidYMid meet" viewBox="0 0 26 26" width="26" height="26"><defs><path d="M0 23.98C0 25.09 0.9 25.98 2 25.98C2.79 25.98 6.74 25.98 13.84 25.98C13.84 25.31 13.84 21.97 13.84 15.95L10.46 15.95L10.46 11.85C12.49 11.85 13.61 11.85 13.84 11.85C13.84 9.79 13.84 8.64 13.84 8.41C13.84 5.91 15.87 3.88 18.37 3.88C18.61 3.88 19.79 3.88 21.91 3.88C21.91 4.25 21.91 7.19 21.91 7.56C20.39 7.56 19.55 7.56 19.38 7.56C18.58 7.56 17.94 8.21 17.94 9C17.94 9.19 17.94 10.14 17.94 11.85C18.2 11.85 19.5 11.85 21.84 11.85L21.3 15.95L17.94 15.95C17.94 21.97 17.94 25.31 17.94 25.98C21.56 25.98 23.58 25.98 23.98 25.98C25.09 25.98 25.98 25.09 25.98 23.98C25.98 21.79 25.98 4.2 25.98 2C25.98 0.9 25.09 0 23.98 0C22.51 0 15.19 0 2 0C0.67 0.6 0 1.26 0 2C0 4.2 0 21.79 0 23.98Z" id="b3KMB9Qnjt"></path><path d="M0 23.98C0 25.09 0.9 25.98 2 25.98C2.79 25.98 6.74 25.98 13.84 25.98C13.84 25.31 13.84 21.97 13.84 15.95L10.46 15.95L10.46 11.85C12.49 11.85 13.61 11.85 13.84 11.85C13.84 9.79 13.84 8.64 13.84 8.41C13.84 5.91 15.87 3.88 18.37 3.88C18.61 3.88 19.79 3.88 21.91 3.88C21.91 4.25 21.91 7.19 21.91 7.56C20.39 7.56 19.55 7.56 19.38 7.56C18.58 7.56 17.94 8.21 17.94 9C17.94 9.19 17.94 10.14 17.94 11.85C18.2 11.85 19.5 11.85 21.84 11.85L21.3 15.95L17.94 15.95C17.94 21.97 17.94 25.31 17.94 25.98C21.56 25.98 23.58 25.98 23.98 25.98C25.09 25.98 25.98 25.09 25.98 23.98C25.98 21.79 25.98 4.2 25.98 2C25.98 0.9 25.09 0 23.98 0C22.51 0 15.19 0 2 0C0.67 0.6 0 1.26 0 2C0 4.2 0 21.79 0 23.98Z" id="c5sXXqSG3f"></path></defs><g><g><g><use xlink:href="#b3KMB9Qnjt" opacity="1" fill="#4a4a4a" fill-opacity="1"></use><g><use xlink:href="#b3KMB9Qnjt" opacity="1" fill-opacity="0" stroke="#000000" stroke-width="1" stroke-opacity="0"></use></g></g><g><use xlink:href="#c5sXXqSG3f" opacity="1" fill="#000000" fill-opacity="0"></use><g><use xlink:href="#c5sXXqSG3f" opacity="1" fill-opacity="0" stroke="#000000" stroke-width="1" stroke-opacity="0"></use></g></g></g></g></svg>
